X:16845
T:The Hills Of Offaly
R:Reel
C:Paddy O'Brien
S:Seamus Egan
H:
N:
D:Solo Album #1 
Z:Adrian Scahill
M:4/4
L:1/8
K:D
d2fe dBAF|A2EA ceec|dff2 dBAF| EFGA BEE2|\
d2fe dBAF|A2EA ceec|edfe dBAF|EFGE FDD2:||\
d3f a3f|e2ge cAA2|defg a3f|gf (3efg fdec|\
d3f a3f|e2ge cAA2|(3Bcd ec dfed|cAGE FDD2:||
